!!!!SEGMENT: pl-kk--kk-i-388--008_anonim--offertorium-laetatus-sum.krn
!!!cenid: 18xx:1405
!!!COM: Anonim
!!!COM-rismID: pe30004985
!!!CDT:
!!!CNT:
!!!OTL: Offertorium
!!!PDT:
!!!AGN: Sacred
!!!SMS-siglum: PL-Kk
!!!SMS-shelfmark: Kk.I.388
!!!SMS-shelfwork: 008 W
!!!SMS-variant:
!!!SMS-altvar:
!!!NIFC-rismSourceID: 1001140238
!!!NIFC-rismChildID: 1001140865
!!!NIFC-islandoraID: pl-kk:6939
!!!URL-pdf-islandora: https://repozytorium.nifc.pl/islandora/object/pl-kk%3A6939/datastream/PDF/view
!!!URL-scan: https://polish.musicsources.pl/pl/lokalizacje/galeria/rekopisy/5998 @EN{Scan on Polish Music Sources Website} @PL{Skany w portalu Dziedzictwo Muzyki Polskiej w otwartym dostępie}
!!!ONB-nifc:
!!!AIN: 1 alto 1 bass 1 soprn 1 tenor
!!!key:
**kern	**text	**kern	**text	**kern	**text	**kern	**text
*part4	*part4	*part3	*part3	*part2	*part2	*part1	*part1
*staff4	*staff4	*staff3	*staff3	*staff2	*staff2	*staff1	*staff1
*Ibass	*	*Itenor	*	*Ialto	*	*Isoprn	*
*I"Basso.	*	*I"Tenore.	*	*I"Alto.	*	*I"Soprano.	*
*I'B	*	*I'T	*	*I'A	*	*I'S	*
*clefF4	*	*clefC4	*	*clefC3	*	*clefC1	*
*k[f#]	*	*k[f#]	*	*k[f#]	*	*k[f#]	*
*G:	*	*G:	*	*G:	*	*G:	*
*M3/4	*	*M3/4	*	*M3/4	*	*M3/4	*
*all\right	*	*all\right	*	*all\right	*	*all\right	*
!	!LO:MO:mod=Lae-	!	!	!	!	!	!
!LO:TX:t=P:problem=na górze str. 32 skreślona partia w kluczu tenorowym z dopiskiem "ten No Spiewa Tenor."	!	!	!LO:MO:mod=Lae-	!	!LO:MO:mod=Lae-	!	!LO:MO:mod=Lae-
!LO:TX:a:t=No 8ty. Offertorium in G #	!	!LO:TX:a:t=No 8my Offertorium	!	!LO:TX:a:t=No 8. Offertorium	!	!LO:TX:a:t=No 8. Offertorium	!
4G\	Le-	4B\	Le-	4g\	Le-	4dd\	Le-
=1	=1	=1	=1	=1	=1	=1	=1
4C/	-ta-	4c\	-ta-	4g\	-ta-	4ee\	-ta-
8G\	-tus	8B\	-tus	8g\	-tus	8dd\	-tus
8r	.	8r	.	8r	.	8r	.
!	!LO:MO:mod=lae-	!	!	!	!	!	!
!LO:TX:t=P:problem=mixed beam	!	!	!LO:MO:mod=lae-	!	!LO:MO:mod=lae-	!	!LO:MO:mod=lae-
8GG/L	le-	4B\	le-	4g\	le-	16dd\LL	le-
.	.	.	.	.	.	16gg\JJ	.
8G\J	.	.	.	.	.	16b\LL	.
.	.	.	.	.	.	16ee\JJ	.
=2	=2	=2	=2	=2	=2	=2	=2
4C/	-ta-	8.B\	-ta-	4f#\	-ta-	8.dd\	-ta-
.	.	16A\	-tus	.	.	16cc\	-tus
4E\	-tus	4G/	sum	4g\	-tus	8b\	sum,
.	.	.	.	.	.	8r	.
4r	.	4r	.	4r	.	4b\	in
=3	=3	=3	=3	=3	=3	=3	=3
8C/	in	8E/	in	8c\	his	8b\	his
!	!	!	!	!	!LO:MO:mod=quae	!	!LO:MO:mod=quae
8E/	his	8E/	his	8e\	que	8a\	que
!	!	!	!	!	!	!LO:LB:g=original	!
!	!LO:MO:mod=quae	!	!LO:MO:mod=quae	!	!	!	!
8C/	que	8E/	que	4e\	dic-	8cc\L	dic-
8C/	di-	8c\	dic-	.	.	8a\J	.
8D/	-cta	8B\	-ta	8d\	-ta	8g\	-ta
8D/	sunt	8A\	sunt	8c\	sunt	8f#\	sunt
!LO:LB:g=original	!	!LO:LB:g=original	!	!LO:LB:g=original	!	!	!
=4	=4	=4	=4	=4	=4	=4	=4
8GG/	mi-	8A\	mi-	8B/	mi-	8a\	mi-
8GG/	-hi	8G\	-hi,	8B/	-hi	8g\	-hi,
4r	.	4r	.	4r	.	4r	.
!LO:TX:t=P:problem=skreślony dźwięk 4GG / słowo "in"	!	!	!	!	!	!	!
4r	.	4B\	in	4r	.	4r	.
=5	=5	=5	=5	=5	=5	=5	=5
2GG/	Do-	4.B\	Do-	8e\L	in	8gg\L	in
.	.	.	.	8a\J	.	8ff#\J	.
.	.	.	.	8g\L	Do-	8ee\L	do-
.	.	8A\	.	8f#\J	.	8dd\J	.
4BB/	-mum	8G/L	-mum	8e\L	-mum	8cc#X\L	-mum
.	.	8F#/J	.	8d\J	.	8b\J	.
=6	=6	=6	=6	=6	=6	=6	=6
4r	.	2E/	Do-	4c#X\	Do-	4b\	Do-
4r	.	.	.	4c#\	-mi-	4a\	-mi-
4BB/	Do-	4F#/	-mum	4d\	-ni	4dd\	-ni
=7	=7	=7	=7	=7	=7	=7	=7
4E\	.	4.G/	Do-	4e\	Do-	4.dd\	Do-
4E\	-mi-	.	.	4e\	-mi-	.	.
.	.	8G/	-mi-	.	.	8ccn\	.
4E\	-ni	4G/	-ni	4e\	-ni	8ee\	-mi-
.	.	.	.	.	.	8cc\	-ni
=8	=8	=8	=8	=8	=8	=8	=8
8F#\	i-	8F#/	i-	8d\	i-	8b\	i-
8F#\	-bi-	8F#/	-bi-	8e\	-bi-	8a#X\	-bi-
4BB/	-mus,	4F#/	-mus,	4d\	-mus,	4b\	-mus,
4r	.	4r	.	4r	.	4r	.
!	!	!	!	!	!	!LO:LB:g=original	!
=9	=9	=9	=9	=9	=9	=9	=9
8GG/	fi-	8B\	fi-	8g\	fi-	8dd\	fi-
8G\	-at	8B\	-at	8g\	-at	8dd\	-at
.	.	.	.	.	.	16qqee/LL	.
.	.	.	.	.	.	16qqdd/JJ	.
4G\	pax	8A#X\L	pax	4g\	pax	8cc#X\	pax
.	.	8B\J	.	.	.	8dd\	in
.	.	.	.	.	.	16qqee/LL	.
.	.	.	.	.	.	16qqdd/JJ	.
!	!	!LO:LB:g=original	!	!LO:LB:g=original	!	!	!
8G\	in	8A#X\	in	8g\	in	8cc#\L	Vir-
8G\	vir-	8B\	vir-	8g\	vir-	8dd\J	.
!LO:LB:g=original	!	!	!	!	!	!	!
=10	=10	=10	=10	=10	=10	=10	=10
4C/	-tu-	8.d\L	-tu-	4g\	-tu-	8.ff#\L	-tu-
.	.	16c\Jk	.	.	.	16ee\Jk	.
8G\	-te	8B\	-te	8g\	-te	8dd\	-te,
8r	.	8r	.	8r	.	8r	.
8GG/	vir-	8B\	vir-	8g\	vir-	16dd\LL	vir-
.	.	.	.	.	.	16gg\JJ	.
16G\	-tu-	16B\	-tu-	16g\	-tu-	16b\	-tu-
16G\	-te	16B\	-te	16g\	-te	16ee\	-te
=11	=11	=11	=11	=11	=11	=11	=11
!	!	!	!LO:MO:mod=Tu-	!	!	!	!
4D\	tu-	4A\	lu-	4f#\	tu-	8.dd\L	tu-
.	.	.	.	.	.	16cc\Jk	.
8G\	-a	8B\	-a,	8g\	-a,	8b\	-a,
8r	.	8r	.	8r	.	8r	.
8E\	et	8B\	et	16b\LL	et	16b\LL	et
.	.	.	.	16g\JJ	.	16ee\JJ	.
16E\	a-	16B\	a-	16g\	a-	16ee\	a-
16E\	-bun-	16B\	-bun-	16e\	-bun-	16gg\	-bun-
!	!	!	!	!	!	!LO:LB:g=original	!
=12	=12	=12	=12	=12	=12	=12	=12
8BB/	-dan-	8d#X\	-dan-	8a\	-dan-	8.gg\	-dan-
8BB/	-ti-	8d#\	-ti-	8a\	-ti-	.	.
.	.	.	.	.	.	16ff#\	-ti-
8E\	-a	8e\	-a	8g\	-a	8ee\	-a
8r	.	8r	.	8r	.	8r	.
4E\	in	8e\L	in	8cc#X\L	in	4gg\	in
.	.	8d#\J	.	8b\J	.	.	.
=13	=13	=13	=13	=13	=13	=13	=13
*2\right	*	*2\right	*	*2\right	*	*	*
2F#\	Tur-	2c#X\	Tur-	2a\	Tur-	4.ff#\	Tur-
.	.	.	.	.	.	8ee\	.
!	!	!LO:LB:g=original	!	!LO:LB:g=original	!	!	!
8G\	-ri-	8B\	-ri-	8b\	-ri-	8dd\	-ri-
8G#X\	-bus	8d\	-bus	8b\	-bus	8ee\	-bus
=14	=14	=14	=14	=14	=14	=14	=14
*	*	*	*	*	*	*2\right	*
4A\	tu-	2d\	tu-	2a\	tu-	2ff#\	tu-
8F#\L	.	.	.	.	.	.	.
8D\J	.	.	.	.	.	.	.
4AA/	-is	4c#X\	.	4g\	.	8.ff#\L	.
.	.	.	.	.	.	16ee\Jk	.
!LO:LB:g=original	!	!	!	!	!	!	!
=15	=15	=15	=15	=15	=15	=15	=15
8D\	fi-	4A\	-is	4f#\	-is,	4dd\	-is,
16D\LL	-at	.	.	.	.	.	.
16E\JJ	.	.	.	.	.	.	.
8F#\L	fi-	4r	.	4r	.	4r	.
8G\J	.	.	.	.	.	.	.
8A\L	-at	4r	.	4r	.	4r	.
8B\J	.	.	.	.	.	.	.
=16	=16	=16	=16	=16	=16	=16	=16
2c\	pax	8A\	fi-	8f#\	fi-	8dd\	fi-
.	.	8A\	-at	8f#\	-at	8dd\	-at
.	.	.	.	.	.	16qqee/LL	.
.	.	.	.	.	.	16qqdd/JJ	.
.	.	4A\	pax	4f#\	Pax	8cc#X\L	pax
.	.	.	.	.	.	8dd\J	.
!	!	!	!	!	!	!LO:LB:g=original	!
4C/	in	8A\	in	8g\	in	8ee\	in
.	.	8d\	vir-	8a\	vir-	8ff#\	vir-
=17	=17	=17	=17	=17	=17	=17	=17
2BB/	vir-	4d\	-tu-	4g\	-tu-	2gg\	-tu-
.	.	4d\	-te,	4g\	-te	.	.
8BB/	-tu-	4G/	vir-	8fn\	in	8dd\	-te,
8BB/	-te	.	.	8f\	vir-	8dd\	vir-
=18	=18	=18	=18	=18	=18	=18	=18
4C/	tu-	8G\	-tu-	8e\	-tu-	16dd\LL	-tu-
.	.	.	.	.	.	16cc\JJ	.
.	.	16B\LL	-te	8e\	-te	16dd\LL	-te
.	.	16c\JJ	.	.	.	16ee\JJ	.
8D/L	.	4G/	tu-	2d\	tu-	4b\	tu-
8qE/	.	.	.	.	.	.	.
16D/L	.	.	.	.	.	.	.
16C#X/JJ	.	.	.	.	.	.	.
4D/	-a	4F#/	.	.	.	4a\	.
!	!	!LO:LB:g=original	!	!LO:LB:g=original	!	!	!
=19	=19	=19	=19	=19	=19	=19	=19
8GG/L	et	4G/	-a,	4d\	-a,	4b\	-a,
16GG/L	.	.	.	.	.	.	.
16AA/JJ	.	.	.	.	.	.	.
8BB/L	a-	4r	.	4r	.	4r	.
8C/J	.	.	.	.	.	.	.
8D\L	-bun-	4r	.	4r	.	4r	.
8E\J	.	.	.	.	.	.	.
!LO:LB:g=original	!	!	!	!	!	!	!
=20	=20	=20	=20	=20	=20	=20	=20
4.Fn\	-dan-	4B\	et	4g\	et	4dd\	et
.	.	8B\	a-	8g\	a-	8dd\	a-
8GG/	-ti-	8B\	-bun-	8g\	-bun-	8dd\	-bun-
4GG/	-a	8B\	-dan-	8fn\	-dan-	8dd#X\	-dan-
.	.	8B\	-ti-	16f\	-ti-	8dd#\	-ti-
.	.	.	.	16f\	-a	.	.
!	!	!	!	!	!	!LO:LB:g=original	!
=21	=21	=21	=21	=21	=21	=21	=21
2.C/	in	2c\	-a,	4e\	in	2ee\	-a,
.	.	.	.	2g\	.	.	.
.	.	4c\	in	.	.	4ee\	in
=22	=22	=22	=22	=22	=22	=22	=22
2C/	Tur-	2e-X\	Tur-	2a\	Tur-	4ff#\	Tur-
.	.	.	.	.	.	4ff#\	-ri-
8C#X/	-ri-	8en\	-ri-	8b-X\	-ri-	4gg\	-bus
8C#/	-bus	8e\	-bus	8b-\	-bus	.	.
=23	=23	=23	=23	=23	=23	=23	=23
2.D\	tu-	4.d\	tu-	4.b\	tu-	2gg\	tu-
.	.	8c#X\	.	8a#X\	.	.	.
.	.	4cn\	.	4an\	.	16gg\LL	.
.	.	.	.	.	.	16ff#\JJ	.
.	.	.	.	.	.	16ee\LL	.
.	.	.	.	.	.	16ff#\JJ	.
=24	=24	=24	=24	=24	=24	=24	=24
4GG/	-is,	4B\	-is,	4g\	-is,	4gg\	-is,
4GG/	et	8r	.	8r	.	8r	.
.	.	8Fn/	et	8d\	et	8b\	et
!	!	!	!	!LO:LB:g=original	!	!	!
8GG/	a-	8E/	a-	8c\	a-	8cc\	a-
8GG/	-bun-	8E-X/	-bun-	8c\	-bun-	8f#\	-bun-
!	!	!LO:LB:g=original	!	!	!	!	!
=25	=25	=25	=25	=25	=25	=25	=25
!LO:TX:a:t=P:problem=trzy poprawiane nuty 4GG/4AA	!	!	!	!	!	!	!
4GG/	-dan-	4D/	-dan-	4B/	-dan-	4g\	-dan-
4GG/	-ti-	8D/	-ti-	8B/	-ti-	8g\	-ti-
.	.	8D/	-a	8B/	-a	8g\	-a
4GG/	-a	8En/L	in	8c\L	in	8a\L	in
.	.	8Fn/J	.	8d\J	.	8b\J	.
!	!	!	!	!	!	!LO:LB:g=original	!
=26	=26	=26	=26	=26	=26	=26	=26
4GG/	in	4E/	Tur-	2c\	Tur-	8.cc\L	Tur-
.	.	.	.	.	.	16dd\Jk	.
8GG/	Tur-	4e\	-ri-	.	.	16ff#\LL	.
.	.	.	.	.	.	16ee\	.
8GG/	-ri-	.	.	.	.	16dd\	.
.	.	.	.	.	.	16cc\JJ	.
4GG/	-bus	4e-X\	-bus	8c\	-ri-	16b\LL	-ri-
.	.	.	.	.	.	16a\	.
.	.	.	.	8c\	-bus	16cc\	-bus
.	.	.	.	.	.	16f#\JJ	.
!LO:LB:g=original	!	!	!	!	!	!	!
=27	=27	=27	=27	=27	=27	=27	=27
2.GG/	tu-	2.d\	tu-	2.B/	tu-	2.g\	tu-
=28	=28	=28	=28	=28	=28	=28	=28
4GG/	-is.	4d\	-is.	4B/	-is.	4g\	-is.
4r	.	4r	.	4r	.	4r	.
4r	.	4r	.	4r	.	4r	.
==	==	==	==	==	==	==	==
*-	*-	*-	*-	*-	*-	*-	*-
!!!system-decoration: [(s1,s2,s3,s4)]
!!!ENC: Marta Lawrence
!!!END: 2021-01-18
!!!ENC: Andrzej Kubiczek
!!!END: 2021-01-15
!!!YEC: Copyright 2022 Narodowy Instytut Fryderyka Chopina (https://polishscores.org)
!!!YEM: License CC-BY-4.0 (https://creativecommons.org/licenses/by/4.0)
